X: 100365
T: LORD KELLIE'S REEL
R: reel
B: K\"ohler's Violin Repository, v.3, 1885 p.246 #2
F: http://www.archive.org/details/klersviolinrepos03rugg
Z: 2012 John Chambers <jc:trillian.mit.edu>
M: C|
L: 1/8
K: Gm
uB |\
(DG)BG (dG)BG | F2f2 FGAF | (DG)GB (Ac)Bd | cf (d/c/B/A/) (BG)G :|
ug |\
bgdg Gggb | afcf Fffa | bgdg fdcB | Af (d/c/B/A/) (BG)G ||
g |\
bgdg Gggb | afcf Fffa | bga^f gd=fc | Af (d/c/B/A/) BG"_Fine."G "^D.C."|]

%%sep 2 1 500

